X: 3051
T: BOB SIMMS
C: Hugh Dunlop
Q:"Strathspey."
R: Strathspey.
%R:strathspey, shottish
B: James Kerr "Merry Melodies" v.3 p.8 #51
Z: 2016 John Chambers <jc:trillian.mit.edu>
M: C
L: 1/8
K: G
uc |\
B<G G>D (E<G) D2 | C>B,A,>B, C>DE<c |\
B<G G>D (E<G) D2 |[1 B,>CD>G A>G F :|\
[2 B,>CD>c B<G G |]
|: c |\
B<d d>g e>gd>g | c>eB>d A>GF<D |\
B<d d>g e>gd>g | g>de>c B<G G :|

%%sep 1 1 500
%%sep 1 1 500

